X:1
T:New Clog Hornpipe. BHp.31, The
T:New Clog Hornpipe. BHp.31, The
T:By Permission
C:By Permission
L:1/8
Q:1/4=140
M:4/4
K:D
V:1 treble 
V:1
 de | fdec dBAG | F2 D2 D2 A2 | BcdB gfed | c2 A2 A2 AG | FEFA BABd | cBcA d2 cB | AdBG FAGE | %8
 D2 D2 D2 |] A2 | dcdA dcdA | e^deA edeA | fefd fefa | edcB A2 A2 | gfgb fefa | edea dcda | %16
 gefd cBcA | d2 [Fd]2 [DFd]2 |] %18

